src/assets/img/icons/duotone-icons/Devices/iPhone-X.svg

<?xml version="1.0" encoding="UTF-8"?>
<svg width="24px" height="24px" viewBox="0 0 24 24" version="1.1" xmlns="http://www.w3.org/2000/svg" xmlns:xlink="http://www.w3.org/1999/xlink">
    <!-- Generator: Sketch 52.2 (67145) - http://www.bohemiancoding.com/sketch -->
    <title>Stockholm-icons / Devices / iPhone-X</title>
    <desc>Created with Sketch.</desc>
    <g id="Stockholm-icons-/-Devices-/-iPhone-X" stroke="none" stroke-width="1" fill="none" fill-rule="evenodd">
        <rect id="bound" x="0" y="0" width="24" height="24"></rect>
        <path d="M8,2.5 C7.30964406,2.5 6.75,3.05964406 6.75,3.75 L6.75,20.25 C6.75,20.9403559 7.30964406,21.5 8,21.5 L16,21.5 C16.6903559,21.5 17.25,20.9403559 17.25,20.25 L17.25,3.75 C17.25,3.05964406 16.6903559,2.5 16,2.5 L8,2.5 Z" id="Combined-Shape" fill="#335EEA" opacity="0.3"></path>
        <path d="M8,2.5 C7.30964406,2.5 6.75,3.05964406 6.75,3.75 L6.75,20.25 C6.75,20.9403559 7.30964406,21.5 8,21.5 L16,21.5 C16.6903559,21.5 17.25,20.9403559 17.25,20.25 L17.25,3.75 C17.25,3.05964406 16.6903559,2.5 16,2.5 L8,2.5 Z M8,1 L16,1 C17.5187831,1 18.75,2.23121694 18.75,3.75 L18.75,20.25 C18.75,21.7687831 17.5187831,23 16,23 L8,23 C6.48121694,23 5.25,21.7687831 5.25,20.25 L5.25,3.75 C5.25,2.23121694 6.48121694,1 8,1 Z M9.5,1.75 L14.5,1.75 C14.7761424,1.75 15,1.97385763 15,2.25 L15,3.25 C15,3.52614237 14.7761424,3.75 14.5,3.75 L9.5,3.75 C9.22385763,3.75 9,3.52614237 9,3.25 L9,2.25 C9,1.97385763 9.22385763,1.75 9.5,1.75 Z" id="Combined-Shape" fill="#335EEA"></path>
    </g>
</svg>

<svg width="24" height="24" viewBox="0 0 24 24" xmlns="http://www.w3.org/2000/svg"><g fill="none" fill-rule="evenodd"><path d="M0 0h24v24H0z"/><path d="M8 2.5c-.69 0-1.25.56-1.25 1.25v16.5c0 .69.56 1.25 1.25 1.25h8c.69 0 1.25-.56 1.25-1.25V3.75c0-.69-.56-1.25-1.25-1.25H8z" fill="#335EEA" opacity=".3"/><path d="M8 2.5c-.69 0-1.25.56-1.25 1.25v16.5c0 .69.56 1.25 1.25 1.25h8c.69 0 1.25-.56 1.25-1.25V3.75c0-.69-.56-1.25-1.25-1.25H8zM8 1h8a2.75 2.75 0 012.75 2.75v16.5A2.75 2.75 0 0116 23H8a2.75 2.75 0 01-2.75-2.75V3.75A2.75 2.75 0 018 1zm1.5.75h5a.5.5 0 01.5.5v1a.5.5 0 01-.5.5h-5a.5.5 0 01-.5-.5v-1a.5.5 0 01.5-.5z" fill="#335EEA"/></g></svg>
